assets/icons/supported_selectable_icons/logos/financial_institutions/223.svg

<svg xmlns="http://www.w3.org/2000/svg" width="500" height="500" fill="none"><path fill="#0500F5" d="m207.45 243.912 15.619-73.896h13.733l-34.216 160.698h-27.452l15.626-73.068zm53.422-44.544 6.339-29.352 13.726-.008-25.134 117.628-16.683 13.726-6.331 29.352h-13.733l25.339-117.628zm-107.064 89.104 25.339-118.464.008-.008h13.718l-34.421 160.714H131l6.126-28.303zm153.524 42.242 34.216-160.698H369l-6.126 28.508-16.682 13.726-25.339 118.464zm-9.926-160.698h27.46l-15.421 73.068-16.675 13.718-15.846 73.912h-13.726z"/></svg>

<svg width="500" height="500" viewBox="0 0 500 500" fill="none" xmlns="http://www.w3.org/2000/svg">
<path d="M207.45 243.912L223.069 170.016H236.802L202.586 330.714H175.134L190.76 257.646L207.45 243.912Z" fill="#0500F5"/>
<path d="M260.872 199.368L267.211 170.016L280.937 170.008L255.803 287.636L239.12 301.362L232.789 330.714H219.056L244.395 213.086L260.872 199.368Z" fill="#0500F5"/>
<path d="M153.808 288.472L179.147 170.008L179.155 170H192.873L158.452 330.714H131L137.126 302.411L153.808 288.472Z" fill="#0500F5"/>
<path d="M307.332 330.714L341.548 170.016H369L362.874 198.524L346.192 212.25L320.853 330.714H307.332Z" fill="#0500F5"/>
<path d="M297.406 170.016H324.866L309.445 243.084L292.77 256.802L276.924 330.714H263.198L297.406 170.016Z" fill="#0500F5"/>
</svg>
